X:214
T: Sehnsucht
N: A0259
O: Europa, Mitteleuropa, Deutschland
N: Locheimer Lbb. 1450 No. 17. Die Rhythmisierung ist von Boehme,
N: sie folgt der "musikalischen Vernunft".
R: Romanze, Ballade, Lied
M: 6/2
L: 1/2
K: D
G | A2AAd2 | =c2A=FG2 | =F2z
G | Ad2=cdB | A2z
G | A_B=cc | d2A2
d2 | =c2_BABG | =F2
=c2 | _BAG=F | E2D2
E=F | =c2AcG2 | =F2z
F | AA=cc | d2A2
G2 | AG2=FE2 | D3

